static/img/in-field/checkbox-spec-default-dark.svg

<svg width="182" height="58" viewBox="0 0 182 58" fill="none" xmlns="http://www.w3.org/2000/svg">
<path d="M25.4688 33.8579H19.4805V32.5981L21.6309 30.4243C22.2676 29.772 22.6836 29.3208 22.8789 29.0708C23.0742 28.8169 23.2148 28.5825 23.3008 28.3677C23.3867 28.1528 23.4297 27.9302 23.4297 27.6997C23.4297 27.356 23.334 27.1001 23.1426 26.9321C22.9551 26.7642 22.7031 26.6802 22.3867 26.6802C22.0547 26.6802 21.7324 26.7563 21.4199 26.9087C21.1074 27.061 20.7812 27.2778 20.4414 27.5591L19.457 26.3931C19.8789 26.0337 20.2285 25.7798 20.5059 25.6313C20.7832 25.4829 21.0859 25.3696 21.4141 25.2915C21.7422 25.2095 22.1094 25.1685 22.5156 25.1685C23.0508 25.1685 23.5234 25.2661 23.9336 25.4614C24.3438 25.6567 24.6621 25.9302 24.8887 26.2817C25.1152 26.6333 25.2285 27.0356 25.2285 27.4888C25.2285 27.8833 25.1582 28.2544 25.0176 28.6021C24.8809 28.9458 24.666 29.2993 24.373 29.6626C24.084 30.0259 23.5723 30.5435 22.8379 31.2153L21.7363 32.2524V32.3345H25.4688V33.8579ZM32.4456 32.0825H31.4143V33.8579H29.6448V32.0825H25.9885V30.8228L29.7444 25.2915H31.4143V30.6763H32.4456V32.0825ZM29.6448 30.6763V29.2231C29.6448 28.981 29.6546 28.6294 29.6741 28.1685C29.6936 27.7075 29.7092 27.4399 29.721 27.3657H29.6741C29.5296 27.686 29.3557 27.9985 29.1526 28.3032L27.5823 30.6763H29.6448ZM35.5787 33.9751C34.8091 33.9751 34.2037 33.6763 33.7622 33.0786C33.3247 32.481 33.106 31.6528 33.106 30.5942C33.106 29.52 33.3287 28.6841 33.774 28.0864C34.2232 27.4849 34.8404 27.1841 35.6255 27.1841C36.4497 27.1841 37.0787 27.5044 37.5122 28.145H37.5708C37.481 27.6567 37.4361 27.2212 37.4361 26.8384V24.7407H39.229V33.8579H37.858L37.5122 33.0083H37.4361C37.0298 33.6528 36.4107 33.9751 35.5787 33.9751ZM36.2056 32.5513C36.6626 32.5513 36.9966 32.4185 37.2076 32.1528C37.4224 31.8872 37.5396 31.436 37.5591 30.7993V30.606C37.5591 29.9028 37.4497 29.3989 37.231 29.0942C37.0162 28.7896 36.6646 28.6372 36.1763 28.6372C35.7779 28.6372 35.4673 28.8071 35.2447 29.147C35.0259 29.4829 34.9165 29.9731 34.9165 30.6177C34.9165 31.2622 35.0279 31.7466 35.2505 32.0708C35.4732 32.3911 35.7915 32.5513 36.2056 32.5513ZM44.6238 33.9751C43.8543 33.9751 43.2508 33.6958 42.8133 33.1372H42.7195C42.782 33.6841 42.8133 34.0005 42.8133 34.0864V36.7407H41.0262V27.3071H42.4793L42.7313 28.1567H42.8133C43.2313 27.5083 43.8504 27.1841 44.6707 27.1841C45.4442 27.1841 46.0496 27.4829 46.4871 28.0806C46.9246 28.6782 47.1434 29.5083 47.1434 30.5708C47.1434 31.27 47.0399 31.8774 46.8328 32.3931C46.6297 32.9087 46.3387 33.3013 45.9598 33.5708C45.5809 33.8403 45.1356 33.9751 44.6238 33.9751ZM44.0965 28.6138C43.6551 28.6138 43.3328 28.7505 43.1297 29.0239C42.9266 29.2935 42.8211 29.7407 42.8133 30.3657V30.5591C42.8133 31.2622 42.9168 31.7661 43.1238 32.0708C43.3348 32.3755 43.6668 32.5278 44.1199 32.5278C44.9207 32.5278 45.3211 31.8677 45.3211 30.5474C45.3211 29.9028 45.2215 29.4204 45.0223 29.1001C44.827 28.7759 44.5184 28.6138 44.0965 28.6138Z" fill="#4091D2"/>
<path d="M62 18.1157H53V40.0504H62" stroke="#4091D2"/>
<path fill-rule="evenodd" clip-rule="evenodd" d="M86.6667 17.0833H105.333C106.813 17.0833 108 18.2833 108 19.7499V38.4166C108 39.8833 106.813 41.0833 105.333 41.0833H86.6667C85.1867 41.0833 84 39.8833 84 38.4166V19.7499C84 18.2833 85.1867 17.0833 86.6667 17.0833ZM86.6667 29.0833L93.3333 35.7499L105.333 23.7499L103.453 21.8566L93.3333 31.9766L88.5467 27.2033L86.6667 29.0833Z" fill="#019AEB"/>
<path fill-rule="evenodd" clip-rule="evenodd" d="M86.6667 29.0833L93.3333 35.7499L105.333 23.7499L103.453 21.8566L93.3333 31.9766L88.5467 27.2033L86.6667 29.0833Z" fill="white"/>
<path d="M130 1H139V56.8337H130" stroke="#4091D2"/>
<path d="M152.598 23.8491C153.426 23.8491 154.084 24.0815 154.572 24.5464C155.064 25.0112 155.311 25.6479 155.311 26.4565C155.311 27.4136 155.016 28.1499 154.426 28.6655C153.836 29.1812 152.992 29.439 151.895 29.439C150.941 29.439 150.172 29.2847 149.586 28.9761V27.4116C149.895 27.5757 150.254 27.7104 150.664 27.8159C151.074 27.9175 151.463 27.9683 151.83 27.9683C152.936 27.9683 153.488 27.5151 153.488 26.6089C153.488 25.7456 152.916 25.314 151.771 25.314C151.564 25.314 151.336 25.3354 151.086 25.3784C150.836 25.4175 150.633 25.4604 150.477 25.5073L149.756 25.1206L150.078 20.7554H154.725V22.2905H151.666L151.508 23.9722L151.713 23.9312C151.951 23.8765 152.246 23.8491 152.598 23.8491ZM156.205 25.6831C156.205 23.9878 156.563 22.7261 157.278 21.8979C157.996 21.0698 159.071 20.6558 160.5 20.6558C160.989 20.6558 161.371 20.6851 161.649 20.7437V22.1909C161.301 22.1128 160.957 22.0737 160.617 22.0737C159.996 22.0737 159.489 22.1675 159.094 22.355C158.703 22.5425 158.41 22.8198 158.215 23.187C158.02 23.5542 157.905 24.0757 157.869 24.7515H157.946C158.332 24.0874 158.951 23.7554 159.803 23.7554C160.569 23.7554 161.168 23.9956 161.602 24.4761C162.035 24.9565 162.252 25.6206 162.252 26.4683C162.252 27.3823 161.994 28.1069 161.479 28.6421C160.963 29.1733 160.248 29.439 159.334 29.439C158.701 29.439 158.149 29.2925 157.676 28.9995C157.207 28.7065 156.844 28.2788 156.586 27.7163C156.332 27.1538 156.205 26.4761 156.205 25.6831ZM159.299 27.9917C159.686 27.9917 159.983 27.8628 160.19 27.605C160.397 27.3433 160.5 26.9722 160.5 26.4917C160.5 26.0737 160.403 25.7456 160.207 25.5073C160.016 25.2651 159.725 25.144 159.334 25.144C158.967 25.144 158.653 25.2632 158.391 25.5015C158.133 25.7397 158.004 26.0171 158.004 26.3335C158.004 26.7983 158.125 27.1909 158.367 27.5112C158.614 27.8315 158.924 27.9917 159.299 27.9917ZM165.579 29.439C164.809 29.439 164.204 29.1401 163.762 28.5425C163.325 27.9448 163.106 27.1167 163.106 26.0581C163.106 24.9839 163.329 24.1479 163.774 23.5503C164.223 22.9487 164.84 22.6479 165.626 22.6479C166.45 22.6479 167.079 22.9683 167.512 23.6089H167.571C167.481 23.1206 167.436 22.6851 167.436 22.3022V20.2046H169.229V29.3218H167.858L167.512 28.4722H167.436C167.03 29.1167 166.411 29.439 165.579 29.439ZM166.206 28.0151C166.663 28.0151 166.997 27.8823 167.208 27.6167C167.422 27.3511 167.54 26.8999 167.559 26.2632V26.0698C167.559 25.3667 167.45 24.8628 167.231 24.5581C167.016 24.2534 166.665 24.1011 166.176 24.1011C165.778 24.1011 165.467 24.271 165.245 24.6108C165.026 24.9468 164.917 25.437 164.917 26.0815C164.917 26.7261 165.028 27.2104 165.251 27.5347C165.473 27.855 165.792 28.0151 166.206 28.0151ZM174.624 29.439C173.854 29.439 173.251 29.1597 172.813 28.6011H172.72C172.782 29.1479 172.813 29.4644 172.813 29.5503V32.2046H171.026V22.771H172.479L172.731 23.6206H172.813C173.231 22.9722 173.85 22.6479 174.671 22.6479C175.444 22.6479 176.05 22.9468 176.487 23.5444C176.925 24.1421 177.143 24.9722 177.143 26.0347C177.143 26.7339 177.04 27.3413 176.833 27.8569C176.63 28.3726 176.339 28.7651 175.96 29.0347C175.581 29.3042 175.136 29.439 174.624 29.439ZM174.097 24.0776C173.655 24.0776 173.333 24.2144 173.13 24.4878C172.927 24.7573 172.821 25.2046 172.813 25.8296V26.0229C172.813 26.7261 172.917 27.23 173.124 27.5347C173.335 27.8394 173.667 27.9917 174.12 27.9917C174.921 27.9917 175.321 27.3315 175.321 26.0112C175.321 25.3667 175.222 24.8843 175.022 24.564C174.827 24.2397 174.518 24.0776 174.097 24.0776Z" fill="#4091D2"/>
</svg>

<svg width="182" height="58" fill="none" xmlns="http://www.w3.org/2000/svg"><path d="M25.469 33.858H19.48v-1.26l2.15-2.174c.638-.652 1.054-1.103 1.249-1.353.195-.254.336-.489.422-.703.086-.215.129-.438.129-.668 0-.344-.096-.6-.287-.768-.188-.168-.44-.252-.756-.252-.332 0-.655.076-.967.229-.313.152-.639.369-.979.65l-.984-1.166c.422-.36.771-.613 1.049-.762a3.76 3.76 0 01.908-.34 4.549 4.549 0 011.102-.122c.535 0 1.007.097 1.418.292.41.196.728.47.955.82.226.352.34.755.34 1.208 0 .394-.07.765-.211 1.113a4.17 4.17 0 01-.645 1.06c-.289.364-.8.882-1.535 1.553l-1.102 1.037v.082h3.733v1.524zm6.977-1.775h-1.032v1.775h-1.77v-1.775H25.99v-1.26l3.755-5.532h1.67v5.385h1.032v1.407zm-2.801-1.407v-1.453c0-.242.01-.594.03-1.054.019-.462.034-.73.046-.803h-.047c-.144.32-.318.633-.521.937l-1.57 2.373h2.062zm5.934 3.3c-.77 0-1.375-.3-1.817-.897-.437-.598-.656-1.426-.656-2.485 0-1.074.223-1.91.668-2.508.45-.601 1.066-.902 1.852-.902.824 0 1.453.32 1.886.961h.059a7.31 7.31 0 01-.135-1.307v-2.097h1.793v9.117h-1.371l-.346-.85h-.076c-.406.645-1.025.967-1.857.967zm.627-1.425c.457 0 .79-.133 1.002-.398.214-.266.332-.717.351-1.354v-.193c0-.703-.11-1.207-.328-1.512-.215-.304-.566-.457-1.055-.457-.398 0-.709.17-.931.51-.22.336-.328.826-.328 1.47 0 .645.11 1.13.334 1.454.222.32.54.48.955.48zm8.418 1.424c-.77 0-1.373-.28-1.81-.838h-.095c.063.547.094.864.094.95v2.654h-1.787v-9.434h1.453l.252.85h.082c.418-.649 1.037-.973 1.858-.973.773 0 1.379.299 1.816.897.438.597.656 1.427.656 2.49 0 .699-.103 1.306-.31 1.822-.203.516-.494.908-.873 1.178-.38.27-.824.404-1.336.404zm-.528-5.361c-.44 0-.763.136-.966.41-.203.27-.309.717-.317 1.342v.193c0 .703.104 1.207.31 1.512.212.305.544.457.997.457.8 0 1.201-.66 1.201-1.98 0-.645-.1-1.128-.299-1.448-.195-.324-.504-.486-.925-.486z" fill="#4091D2"/><path d="M62 18.116h-9V40.05h9" stroke="#4091D2"/><path fill-rule="evenodd" clip-rule="evenodd" d="M86.667 17.083h18.666c1.48 0 2.667 1.2 2.667 2.667v18.667a2.666 2.666 0 01-2.667 2.666H86.667c-1.48 0-2.667-1.2-2.667-2.666V19.75a2.666 2.666 0 012.667-2.667zm0 12l6.666 6.667 12-12-1.88-1.893-10.12 10.12-4.786-4.774-1.88 1.88z" fill="#019AEB"/><path fill-rule="evenodd" clip-rule="evenodd" d="M86.667 29.083l6.666 6.667 12-12-1.88-1.893-10.12 10.12-4.786-4.774-1.88 1.88z" fill="#fff"/><path d="M130 1h9v55.834h-9" stroke="#4091D2"/><path d="M152.598 23.85c.828 0 1.486.231 1.974.696.492.465.739 1.102.739 1.91 0 .958-.295 1.694-.885 2.21-.59.515-1.434.773-2.531.773-.954 0-1.723-.154-2.309-.463v-1.564c.309.164.668.298 1.078.404.41.102.799.152 1.166.152 1.106 0 1.658-.453 1.658-1.36 0-.862-.572-1.294-1.717-1.294-.207 0-.435.021-.685.064-.25.04-.453.082-.609.13l-.721-.387.322-4.366h4.647v1.536h-3.059l-.158 1.681.205-.04a4.03 4.03 0 01.885-.083zm3.607 1.833c0-1.695.358-2.957 1.073-3.785.718-.828 1.793-1.242 3.222-1.242.489 0 .871.03 1.149.088v1.447a4.702 4.702 0 00-1.032-.117c-.621 0-1.128.093-1.523.281a1.89 1.89 0 00-.879.832c-.195.367-.31.889-.346 1.564h.077c.386-.664 1.005-.996 1.857-.996.766 0 1.365.24 1.799.721.433.48.65 1.145.65 1.992 0 .914-.258 1.639-.773 2.174-.516.531-1.231.797-2.145.797-.633 0-1.185-.146-1.658-.44-.469-.293-.832-.72-1.09-1.283-.254-.562-.381-1.24-.381-2.033zm3.094 2.309c.387 0 .684-.13.891-.387.207-.262.31-.633.31-1.113 0-.418-.097-.746-.293-.985-.191-.242-.482-.363-.873-.363-.367 0-.681.12-.943.358-.258.238-.387.515-.387.832 0 .464.121.857.363 1.177.247.32.557.48.932.48zm6.28 1.447c-.77 0-1.375-.299-1.817-.896-.437-.598-.656-1.426-.656-2.485 0-1.074.223-1.91.668-2.508.449-.601 1.066-.902 1.852-.902.824 0 1.453.32 1.886.96h.059a7.294 7.294 0 01-.135-1.306v-2.097h1.793v9.117h-1.371l-.346-.85h-.076c-.406.645-1.025.967-1.857.967zm.627-1.424c.457 0 .791-.133 1.002-.398.214-.266.332-.717.351-1.354v-.193c0-.703-.109-1.207-.328-1.512-.215-.305-.566-.457-1.055-.457-.398 0-.709.17-.931.51-.219.336-.328.826-.328 1.47 0 .645.111 1.13.334 1.454.222.32.541.48.955.48zm8.418 1.424c-.77 0-1.373-.28-1.811-.838h-.093c.062.547.093.863.093.95v2.654h-1.787V22.77h1.453l.252.85h.082c.418-.649 1.037-.973 1.858-.973.773 0 1.379.299 1.816.896.438.598.656 1.428.656 2.49 0 .7-.103 1.307-.31 1.823-.203.516-.494.908-.873 1.178-.379.27-.824.404-1.336.404zm-.527-5.361c-.442 0-.764.136-.967.41-.203.27-.309.717-.317 1.342v.193c0 .703.104 1.207.311 1.512.211.304.543.457.996.457.801 0 1.201-.66 1.201-1.98 0-.645-.099-1.128-.299-1.448-.195-.324-.504-.486-.925-.486z" fill="#4091D2"/></svg>
